X: 30839
T: Our Ship Did Sail
R: waltz
M: 3/4
K: Bminor
F2|B3 (d cB)|(cd) e2 e2|f3 e (cB)|B4 F2|
B3 (d cB)|(cd) e2 e2|f3 e cB|B3 (f af)|
e3 d ee|f4 e2|d3 c/B/ FF|A4 F2|
B3 (d cB)|(cd) e2 e2|f3 f (e/d/) B|B4||

